svgs/flashy.svg

<svg xmlns="http://www.w3.org/2000/svg" width="192" height="192"><path fill="none" stroke="#000" stroke-linejoin="round" stroke-width="12" d="M122 22H70c-4.42 0-8 3.58-8 8v30.69c0 2.12.84 4.15 2.34 5.65l11.32 11.32c1.5 1.5 2.34 3.53 2.34 5.65V162c0 4.42 3.58 8 8 8h20c4.42 0 8-3.58 8-8V83.31c0-2.12.84-4.15 2.34-5.65l11.32-11.32c1.5-1.5 2.34-3.53 2.34-5.65V30c0-4.42-3.58-8-8-8Z"/><path fill="none" stroke="#000" stroke-linecap="round" stroke-width="12" d="M62 46h66"/><path fill="none" stroke="#000" stroke-linecap="round" stroke-width="8" d="M96 84v18"/></svg>

<?xml version="1.0" encoding="UTF-8" standalone="no"?><svg xmlns:android="http://schemas.android.com/apk/res/android" height="192" width="192" xmlns="http://www.w3.org/2000/svg">
  <path d="M122,22H70C65.58,22 62,25.58 62,30V60.69C62,62.81 62.84,64.84 64.34,66.34L75.66,77.66C77.16,79.16 78,81.19 78,83.31V162C78,166.42 81.58,170 86,170H106C110.42,170 114,166.42 114,162V83.31C114,81.19 114.84,79.16 116.34,77.66L127.66,66.34C129.16,64.84 130,62.81 130,60.69V30C130,25.58 126.42,22 122,22Z" fill="#000000" fill-opacity="0.0" stroke="#000000" stroke-linejoin="round" stroke-width="12"/>
  <path d="M62,46H128" fill="#000000" fill-opacity="0.0" stroke="#000000" stroke-linecap="round" stroke-width="12"/>
  <path d="M96,84V102" fill="#000000" fill-opacity="0.0" stroke="#000000" stroke-linecap="round" stroke-width="8"/>
</svg>
